round/svg/local_laundry_service.svg

<svg xmlns="http://www.w3.org/2000/svg" width="24" height="24"><path fill="none" d="M0 0h24v24H0V0z"/><path d="M9.55 16.45c-.2.2-.21.55.02.73 1.57 1.2 3.83 1.08 5.26-.35s1.55-3.69.35-5.26c-.18-.23-.53-.23-.73-.02l-4.9 4.9zM18 2.01L6 2c-1.11 0-2 .89-2 2v16c0 1.11.89 2 2 2h12c1.11 0 2-.89 2-2V4c0-1.11-.89-1.99-2-1.99zM10 4c.55 0 1 .45 1 1s-.45 1-1 1-1-.45-1-1 .45-1 1-1zM7 4c.55 0 1 .45 1 1s-.45 1-1 1-1-.45-1-1 .45-1 1-1zm5 16c-3.31 0-6-2.69-6-6s2.69-6 6-6 6 2.69 6 6-2.69 6-6 6z" fill="currentColor"/></svg>

<?xml version="1.0" encoding="utf-8"?>
<!-- Generator: Adobe Illustrator 19.1.0, SVG Export Plug-In . SVG Version: 6.00 Build 0)  -->
<svg version="1.1" xmlns="http://www.w3.org/2000/svg" xmlns:xlink="http://www.w3.org/1999/xlink" x="0px" y="0px" width="24px"
	 height="24px" viewBox="0 0 24 24" enable-background="new 0 0 24 24" xml:space="preserve">
<g id="Bounding_Boxes">
	<path fill="none" d="M0,0h24v24H0V0z"/>
</g>
<g id="Rounded" fill="currentColor">
	<path d="M9.55,16.45c-0.2,0.2-0.21,0.55,0.02,0.73c1.57,1.2,3.83,1.08,5.26-0.35s1.55-3.69,0.35-5.26
		c-0.18-0.23-0.53-0.23-0.73-0.02L9.55,16.45z M18,2.01L6,2C4.89,2,4,2.89,4,4v16c0,1.11,0.89,2,2,2h12c1.11,0,2-0.89,2-2V4
		C20,2.89,19.11,2.01,18,2.01z M10,4c0.55,0,1,0.45,1,1s-0.45,1-1,1S9,5.55,9,5S9.45,4,10,4z M7,4c0.55,0,1,0.45,1,1S7.55,6,7,6
		S6,5.55,6,5S6.45,4,7,4z M12,20c-3.31,0-6-2.69-6-6s2.69-6,6-6s6,2.69,6,6S15.31,20,12,20z"/>
</g>
</svg>
